assets/icons/icon-close/web/icon-close.svg

<?xml version="1.0" encoding="UTF-8" standalone="no"?>
<svg width="48px" height="48px" viewBox="0 0 48 48" version="1.1" xmlns="http://www.w3.org/2000/svg" xmlns:xlink="http://www.w3.org/1999/xlink">
    <!-- Generator: Sketch 45.2 (43514) - http://www.bohemiancoding.com/sketch -->
    <title>icon-close</title>
    <desc>Created with Sketch.</desc>
    <defs></defs>
    <g id="Symbols" stroke="none" stroke-width="1" fill="none" fill-rule="evenodd">
        <g id="icon-close" fill="#2D2D2D">
            <path d="M24.5,22.5857864 L17.7846568,15.8704432 C17.3857405,15.471527 16.7587963,15.4777477 16.368272,15.868272 C15.9750251,16.261519 15.9787198,16.8929334 16.3704432,17.2846568 L23.0857864,24 L16.3704432,30.7153432 C15.971527,31.1142595 15.9777477,31.7412037 16.368272,32.131728 C16.761519,32.5249749 17.3929334,32.5212802 17.7846568,32.1295568 L24.5,25.4142136 L31.2153432,32.1295568 C31.6142595,32.528473 32.2412037,32.5222523 32.631728,32.131728 C33.0249749,31.738481 33.0212802,31.1070666 32.6295568,30.7153432 L25.9142136,24 L32.6295568,17.2846568 C33.028473,16.8857405 33.0222523,16.2587963 32.631728,15.868272 C32.238481,15.4750251 31.6070666,15.4787198 31.2153432,15.8704432 L24.5,22.5857864 Z"></path>
        </g>
    </g>
</svg>

<svg width="48" height="48" viewBox="0 0 48 48" xmlns="http://www.w3.org/2000/svg"><title>icon-close</title><path d="M24.5 22.586l-6.715-6.716a.995.995 0 0 0-1.417-.002 1 1 0 0 0 .002 1.417L23.086 24l-6.716 6.715a.995.995 0 0 0-.002 1.417 1 1 0 0 0 1.417-.002l6.715-6.716 6.715 6.716a.995.995 0 0 0 1.417.002 1 1 0 0 0-.002-1.417L25.914 24l6.716-6.715a.995.995 0 0 0 .002-1.417 1 1 0 0 0-1.417.002L24.5 22.586z" fill="#2D2D2D" fill-rule="evenodd"/></svg>
